!!!!SEGMENT: pl-kk--kk-i-120--002_anonim--optimam-patrem-elegit.krn
!!!cenid: 16xx:1348
!!!COM: Anonim
!!!COM-rismID: pe30004985
!!!CDT:
!!!CNT:
!!!OTL: Optimam patrem elegit
!!!PDT:
!!!AGN: Sacred
!!!SMS-siglum: PL-Kk
!!!SMS-shelfmark: Kk.I.120
!!!SMS-shelfwork: 002 W
!!!SMS-variant:
!!!SMS-altvar:
!!!NIFC-rismSourceID: 1001153675
!!!NIFC-islandoraID: pl-kk:3447
!!!URL-pdf-islandora: https://repozytorium.nifc.pl/islandora/object/pl-kk%3A3447/datastream/PDF/view
!!!URL-scan: https://polish.musicsources.pl/pl/lokalizacje/galeria/rekopisy/5753 @EN{Scan on Polish Music Sources Website} @PL{Skany w portalu Dziedzictwo Muzyki Polskiej w otwartym dostępie}
!!!ONB-nifc: UWAGA: w zbiorze 1. Alleluia assumpta es Maria, 2. Optimam patrem elegit
!!!AIN: 1 alto 1 empty 1 tenor 1 vox
!!!key:
**kern	**text	**kern	**text	**kern	**text	**kern	**text
*part4	*part4	*part3	*part3	*part2	*part2	*part1	*part1
*staff4	*staff4	*staff3	*staff3	*staff2	*staff2	*staff1	*staff1
*Iempty	*	*Itenor	*	*Ialto	*	*Ivox	*
*I"Baſso	*	*I"Tenore	*	*I"Alto.	*	*I"Canto	*
*I'B	*	*I'T	*	*I'A	*	*I'S	*
*clefF4	*	*clefC4	*	*clefC3	*	*clefC1	*
*k[]	*	*k[]	*	*k[]	*	*k[]	*
*d:	*	*d:	*	*d:	*	*d:	*
*M2/1	*	*M2/1	*	*M2/1	*	*M2/1	*
*met(c|)	*	*met(c|)	*	*met(c|)	*	*met(c|)	*
*2\right	*	*2\right	*	*2\right	*	*2\right	*
=1	=1	=1	=1	=1	=1	=1	=1
!LO:TX:a:t=3	!	!LO:TX:a:t=2	!	!	!	!	!
0r	.	0r	.	1r	.	2a\	O-
.	.	.	.	.	.	4a\	-pti-
.	.	.	.	.	.	4a\	-mam
=2-	=2	=2-	=2	=2-	=2	=2	=2
.	.	.	.	2d\	O-	2f/	par-
.	.	.	.	4d\	-pti-	2d/	-tem
.	.	.	.	4d\	-ma(m)	.	.
=3-	=3	=3-	=3	=3	=3	=3	=3
1r	.	2A\	O-	2c#X/	par-	2e/	O-
.	.	4A\	-pti-	2A/	-te(m)	4e/	-pti-
.	.	4A\	-mam	.	.	4e/	-ma(m)
=4-	=4	=4	=4	=4	=4	=4	=4
2D\	O-	2Fn/	par-	2A/	o-	2f/	par-
4D\	-pti-	2D/	-tem	4d\	-pti-	4a\	-tem
4D\	-mam	.	.	4d\	-ma(m)	4a\	e-
=5	=5	=5	=5	=5	=5	=5	=5
2C#X/	par-	1A	e-	2e\	par-	2cc#X\	-le-
4AA/	-te(m)	.	.	4e,\	-te(m)	4cc#,\	-git,
4AA/	e-	.	.	4e\	e-	4cc#\	e-
=6	=6	=6	=6	=6	=6	=6	=6
2D\	-le-	2A/	-le-	2f\	-le-	2dd\	-le-
2E\	-git	2G/	-git	2g\	-git	2cc\	-git
=7	=7	=7	=7	=7	=7	=7	=7
2F\	si-	2d\	si-	2a\	Si-	4a\	si-
.	.	.	.	.	.	(4dd\	-bi
4G\	-bi	4B-X\	-bi	4g\	-bi	4ee\)	.
4G\	Ma-	4B-\	Ma-	4f\	Ma-	4dd\	Ma-
=8	=8	=8	=8	=8	=8	=8	=8
!	!	!	!	!LO:LB:g=original	!	!LO:LB:g=original	!
1A	-ri-	2A\	-ri-	2e\	-ri-	2cc#X\	-ri-
.	.	2e\	.	2a\	-a	2a\	.
=9	=9	=9	=9	=9	=9	=9	=9
1B-X	.	1d	.	(2a\	e-	2ff\	.
.	.	.	.	2g\)	.	2dd\	.
=10	=10	=10	=10	=10	=10	=10	=10
1A	-a	1e	-a	2a\	-le-	2cc#X\	-a
.	.	.	.	2e,\	-git	2ccn\	Ma-
=11	=11	=11	=11	=11	=11	=11	=11
!LO:LB:g=original	!	!LO:LB:g=original	!	!	!	!	!
2F\	si-	4e\	Ma-	2a\	si-	2cc\	-ri-
.	.	4d\	.	.	.	.	.
4G\	-bi	2d\	.	4g\	-bi	2b-X\	.
4G\	Ma-	.	.	4f\	Ma-	.	.
=12	=12	=12	=12	=12	=12	=12	=12
2A\	-ri-	2d\	-ri-	1e	-ri-	2a\	.
2AA/	.	2c#X\	.	.	.	2cc#X,\	-a,
=13	=13	=13	=13	=13	=13	=13	=13
2D/	-a	2d\	-a	2f#X\	-a	2dd\	O-
2r	.	2r	.	2r	.	4dd\	-pti-
.	.	.	.	.	.	4dd\	-mam
=14	=14	=14	=14	=14	=14	=14	=14
0r	.	1r	.	2a\	O-	2cc#X\	par-
.	.	.	.	4a\	-pti-	2a\	-tem
.	.	.	.	4a\	-ma(m)	.	.
=15-	=15	=15-	=15	=15	=15	=15	=15
.	.	2d\	O-	2fn\	par-	2a\	O-
.	.	4d\	-pti-	2d\	-te(m)	4a\	-pti-
.	.	4d\	-mam	.	.	4a\	-mam
=16	=16	=16	=16	=16	=16	=16	=16
2A\	O-	2c#X\	par-	2e\	o-	2a\	/O-
4A\	-pti-	4A\	-tem	4e\	-pti-	4a\	-pti-
4A\	-mam	4A\	e-	4e\	-ma(m)	4ee\	-mam/
=17	=17	=17	=17	=17	=17	=17	=17
2F\	par-	2A\	-le-	2f\	par-	2dd\	par-
4D\	-tem	2d\	-git	4f\	-te(m)	4dd\	-te(m)
4D\	e-	.	.	4f\	e-	4dd\	e-
=18	=18	=18	=18	=18	=18	=18	=18
!	!	!	!	!LO:LB:g=original	!	!LO:LB:g=original	!
2G\	-le-	2d\	si-	2g\	-le-	2b-X\	-le-
2F\	-git	2f\	.	2a\	-git	2dd\	-git
=19	=19	=19	=19	=19	=19	=19	=19
1E	si-	2Bn\	.	(2g\	si-	(2dd\	si-
.	.	2c#X\	.	2e\)	.	2cc#X\)	.
=20	=20	=20	=20	=20	=20	=20	=20
2D/	-bi	2A\	-bi	2f,\	-bi	2dd\	-bi
2C/	Ma-	2e\	Ma-	2a\	Ma-	2een\	Ma-
=21	=21	=21	=21	=21	=21	=21	=21
1BB-X	-ri-	2f\	-ri-	(2a\	-ri-	1dd	-ri-
.	.	2d\	.	2g\)	.	.	.
=22	=22	=22	=22	=22	=22	=22	=22
!	!	!LO:LB:g=original	!	!	!	!	!
2AA/	-a,	2e\	-a	2a,\	-a	2cc#X\	-a
4F\	quae	4A/	quae	4a\	quae	4ccn\	quae
4F\	n(on)	4A/	non	4a\	non	4cc\	n(on)
=23	=23	=23	=23	=23	=23	=23	=23
!LO:LB:g=original	!	!	!	!	!	!	!
2G\	au-	2d\	au-	2a\	au-	2b-X\	au-
2GG/	-fe-	2d\	-fe-	2g\	-fe-	2b-\	-fe-
=24	=24	=24	=24	=24	=24	=24	=24
4AA/	-re-	2c\	-re-	4f\	-re-	2a\	-re-
4AA,/	-tur,	.	.	4f\	-t(ur)	.	.
4BB-X/	quae	(4c\	-tur	2g\	ab	(4dd\	-tur
4C/	n(on)	4d\)	.	.	.	4cc\)	.
=25	=25	=25	=25	=25	=25	=25	=25
4D\	au-	4d\	quae	(4g\	E-	2a\	ab
4D\	-fe-	4d\	n(on)	4f\)	.	.	.
4D\	-re-	4d\	au-	2f\	-a	4a\	E-
4D\	-tur	4d\	-fe-	.	.	4a\	-a
=26	=26	=26	=26	=26	=26	=26	=26
2E\	ab	2B-X\	-re-	2f\	in	1g	in
4E\	E-	2B-\	-tur	2e\	ae-	.	.
4E\	-a	.	.	.	.	.	.
=27	=27	=27	=27	=27	=27	=27	=27
!	!	!	!	!LO:LB:g=original	!	!	!
2F\	in	2A\	ab	(4d\	-ter-	4a\	ae-
.	.	.	.	4a\)	.	4ff\	.
2G\	ae-	4B\	E-	(4g\	-nu(m)	4ee\	.
.	.	4B\	-a	4f\)	.	4dd\	.
=28	=28	=28	=28	=28	=28	=28	=28
!	!	!	!	!	!	!LO:LB:g=original	!
4A\	-ter-	2A\	in	4e\	in	4cc#X\	-ter-
4A\	-nu(m)	.	.	4e\	ae-	4cc#\	-num
4F\	in	2A\	ae-	4f\	-ter-	4dd\	in
4D\	ae-	.	.	4f\	-nu(m)	4dd\	ae-
=29	=29	=29	=29	=29	=29	=29	=29
2A\	-ter-	1A	-ter-	1e	in	2dd\	-ter-
2AA/	.	.	.	.	.	2cc#X\	.
=30	=30	=30	=30	=30	=30	=30	=30
2D\	-num	2A\	-num	(2f#X\	ae-	2dd\	-num
1G\	in	2B\	.	2g\)	.	2b-X\	in
=31-	=31	=31	=31	=31	=31	=31	=31
!	!	!LO:LB:g=original	!	!	!	!	!
.	.	2d\	in	(2g\	-ter-	2b-X\	.
2F#X\	ae-	2d\	ae-	2a\)	.	2a\	ae-
=32	=32	=32	=32	=32	=32	=32	=32
1G	-ter-	1d	-ter-	1g	.	1b-X	-ter-
=33	=33	=33	=33	=33	=33	=33	=33
0D;	-num	0d;	-num	0f#X;	-num.	0a;	-num
==	==	==	==	==	==	==	==
*-	*-	*-	*-	*-	*-	*-	*-
!!!system-decoration: [(s1,s2,s3,s4)]
!!!ENC: Kamil Watkowski
!!!END: 2021-08-05
!!!YEC: Copyright 2022 Narodowy Instytut Fryderyka Chopina (https://polishscores.org)
!!!YEM: Licence CC BY 4.0 (https://creativecommons.org/licenses/by/4.0)
